X:096
T:Hot Punch
M:6/8
L:1/8
K:G
d2 c | B2 G GAG | E2 G D2 G | B2 G BdB | G3 A2 B | 
c2 A AGA | F2 A A3 | F2 D FAF | D3 d2 c | 
B2 G GAG | E2 G D2 G | B2 G BdB | G3 z2 d | 
dBd cAc | BGB A2 A | D2 D DEF | G3 || 
d2 c | B2 d ded | B2 d d3 | B2 G BdB | G3 A2 B | 
c2 A AGA | F2 A A3 | F2 D FAF | D3 d2 c | 
B2 d ded | B2 d d3 | B2 G BdB | G3 z2 d | 
dBd cAc | BGB A2 A | D2 D DEF | G3 || 

